X:551
T: Des Gesellen Feierabend (250b), S. 537
N: T0439
O: Luxemburg
S: Singendes Volk, Esch-Alzette, 1937 posth.]
N: Rodershausen, ? L. Peters junior, 1930,
N: mitgeteilt, hhh Josef Bour (Lehrer)
R: Berufslied]
M: 4/4
L: 1/8
K: G
D2 | B2B2A2A2 | GGGGD2
D2 | G2G2B2GB | d2z4
GG | e2e2e2e2 | ddddB2
de | d3cc2dc | B2z4
GG | e2e2e2e2 | dddd2B
de | d3cc2dc | B2z4

